client/filepreviewer/pdfjs/web/images/findbarButton-next.svg

<svg width="16" height="16" viewBox="0 0 16 16" fill="none" xmlns="http://www.w3.org/2000/svg">
<path d="M10.999 8.352L5.534 13.818C5.41551 13.9303 5.25786 13.9918 5.09466 13.9895C4.93146 13.9872 4.77561 13.9212 4.66033 13.8057C4.54505 13.6902 4.47945 13.5342 4.47752 13.3709C4.47559 13.2077 4.53748 13.0502 4.65 12.932L9.585 7.998L4.651 3.067C4.53862 2.94864 4.47691 2.79106 4.47903 2.62786C4.48114 2.46466 4.54692 2.30874 4.66233 2.19333C4.77774 2.07792 4.93366 2.01215 5.09686 2.01003C5.26006 2.00792 5.41763 2.06962 5.536 2.182L11 7.647L10.999 8.352Z" fill="black"/>
</svg>

<svg xmlns="http://www.w3.org/2000/svg" width="16" height="16" fill="none"><path d="M10.999 8.352l-5.465 5.466a.63.63 0 0 1-.439.172.62.62 0 0 1-.434-.184.63.63 0 0 1-.183-.435c-.002-.164.06-.321.172-.439l4.935-4.934-4.934-4.931a.63.63 0 0 1 .011-.874.62.62 0 0 1 .435-.183c.164-.002.321.06.439.172L11 7.647l-.001.705z" fill="#000"/></svg>
